!!!OTL: Graf Friedrich Graf Friedrich wollt' ausreiten,
!!!ARE: Europa, Suedosteuropa, Rumaenien, Siebenbuergen, Dobring
!!!YOR: 2, S. 197
!!    1902 aufgezeichnet
!!!SCT: Q0048A
!!!YEM: Copyright 1995, estate of Helmut Schaffrath.
**kern
*ICvox
*Ivox
!! Mixed meters:  6/8; 3/4
*M3/4
*k[f#]
*e:
{8e
=1
8b
8a
8b
8a
8gn
8a
=2
*M3/4
8b
8gn
8f#
4r}
{8e
=3
*M3/4
8b
8a
8b
8a
8gn
8a
=4
*M3/4
8b
8gn
8f#}
{8f#
8e
8g#
=5
*M3/4
4a
8g#
8e
8a
8cc#
=6
*M3/4
4.b}
{8ee
8b
8g#
=7
*M3/4
4e
4b
16a
16g#
16f#
16g#
=8
4e
4r
8r}
==
!!!AGN: Ballade, Hochzeit, Mord / Unfall, Tod
!! Tonartwechsel (Moll nach Dur) . Verzierung in der letzten Zeile.
!!    Pause beim Taktwechsel weggelassen und im Schlusstakt erg„nzt.
!!!ONB: ESAC (Essen Associative Code) Database: BALLADE
!!!AMT: irregular
!!!AIN: vox
!!!EED: Helmut Schaffrath
!!!EEV: 1.0
*-
